X:825
T:the Celebrated Waltz by Madon
A:Wyresdale, Lancashire
B:E and J Winder, 1835-41
L:1/8
M:3/4
O:England
Z:Richard Robinson 
%%RRN:"the best Composition out (quite)"
%%TUNEURL: http://www.leeds.ac.uk/music/Info/RRTuneBk/gettune/00001083.html
%%ID:00001083
K:C
[V:1] ge | c2 c2 (d>B) | G2 G2 (f>d) | B2         B2 B2 | c2 z2 (c'b) | \
a.g.f.e.d.c | Bdgdec      | (B/A/B/c/) dB cA | G4 ::
[V:2] z2 | E2 G2 z2      | B2 G2 z2 | G2          F2 z2 | E2 z2 (ag) | \
.^f.e.d.c.B.A | G2 B2 cA | (G/^F/G/A/) BG AF | G4 ::
[V:1] =f>d | B2 B2 g>e | c2 c2 a>c | d2 d2 ^d2 | He4 g2 | \
{^fga}g4 e2 | (c'bagfe) | .d(fedcB) | c4 ::
[V:2] z2 | F2 F2 z2 | E2 E2 z2 | F2 F2 F2 | HE4 c2 | \
e4 c2    | (agfedc) | F2 G2 G2 | E4 ::
